svg/Pictogram/pictograms-aem-0102-no_open_flame.svg

<?xml version="1.0" encoding="ISO-8859-1" standalone="yes"?>
<svg height="306.397" width="306.397">
  <metadata>
    <rdf:RDF xmlns:cc="http://web.resource.org/cc/" xmlns:dc="http://purl.org/dc/elements/1.1/" xmlns:rdf="http://www.w3.org/1999/02/22-rdf-syntax-ns#">
      <cc:Work rdf:about="">
        <dc:title></dc:title>
        <dc:description></dc:description>
        <dc:subject>
          <rdf:Bag>
            <rdf:li></rdf:li>
          </rdf:Bag>
        </dc:subject>
        <dc:publisher>
          <cc:Agent rdf:about="http://www.unece.org/trans/danger/publi/ghs/pictograms.html">
            <dc:title>Source: UNECE GHS of Classification and Labeling of Chemicals, Source: AEM Pictorial Database, Source: AEM Pictorial Database, Source: AEM Pictorial Database, Source: AEM Pictorial Database</dc:title>
          </cc:Agent>
        </dc:publisher>
        <dc:creator>
          <cc:Agent>
            <dc:title></dc:title>
          </cc:Agent>
        </dc:creator>
        <dc:rights>
          <cc:Agent>
            <dc:title></dc:title>
          </cc:Agent>
        </dc:rights>
        <dc:date></dc:date>
        <dc:format>image/svg+xml</dc:format>
        <dc:type rdf:resource="http://purl.org/dc/dcmitype/StillImage"/>
        <cc:license rdf:resource="http://en.wikipedia.org/wiki/Public_domain"/>
        <dc:language>en</dc:language>
      </cc:Work>
    </rdf:RDF>
  </metadata>
  <defs><marker id="ArrowEnd" markerHeight="3" markerUnits="strokeWidth" markerWidth="4" orient="auto" refX="0" refY="5" viewBox="0 0 10 10"><path d="M 0 0 L 10 5 L 0 10 z"/></marker><marker id="ArrowStart" markerHeight="3" markerUnits="strokeWidth" markerWidth="4" orient="auto" refX="10" refY="5" viewBox="0 0 10 10"><path d="M 10 0 L 0 5 L 10 10 z"/></marker> </defs>
  <g id="g2958" transform="matrix(1.3532768,0,0,1.3532781,-53.207834,-52.192858)">
    <path d="M 151.628 42.3034C 212.265 42.3034 261.729 91.7644 261.729 152.413C 261.729 213.054 212.265 262.515 151.628 262.515C 90.9798 262.515 41.5149 213.054 41.5149 152.413C 41.5149 91.7644 90.9798 42.3034 151.628 42.3034zM 208.815 223.112L 80.9212 95.2144C 68.2298 110.862 60.6048 130.772 60.6048 152.413C 60.6048 202.538 101.492 243.425 151.624 243.425C 173.261 243.425 193.171 235.8 208.815 223.112zM 94.429 81.7104L 222.327 209.605C 235.015 193.96 242.64 174.049 242.64 152.413C 242.64 102.28 201.753 61.3934 151.628 61.3934C 129.987 61.3934 110.073 69.0144 94.429 81.7104" style="stroke:none; fill-rule:evenodd; fill:#d90000"/>
    <path d="M 151.628 42.3034C 212.265 42.3034 261.729 91.7644 261.729 152.413C 261.729 213.054 212.265 262.515 151.628 262.515C 90.9798 262.515 41.5149 213.054 41.5149 152.413C 41.5149 91.7644 90.9798 42.3034 151.628 42.3034zM 208.815 223.112L 80.9212 95.2144C 68.2298 110.862 60.6048 130.772 60.6048 152.413C 60.6048 202.538 101.492 243.425 151.624 243.425C 173.261 243.425 193.171 235.8 208.815 223.112zM 94.429 81.7104L 222.327 209.605C 235.015 193.96 242.64 174.049 242.64 152.413C 242.64 102.28 201.753 61.3934 151.628 61.3934C 129.987 61.3934 110.073 69.0144 94.429 81.7104z" style="stroke:#ff0000; stroke-width:0.216; fill:none"/>
    <path d="M 148.108 167.538L 75.8899 167.538L 75.8899 178.651L 158.995 178.651L 148.108 167.538" style="stroke:none; fill-rule:evenodd; fill:#000000"/>
    <path d="M 148.108 167.538L 75.8899 167.538L 75.8899 178.651L 158.995 178.651L 148.108 167.538z" style="stroke:#000000; stroke-width:0.216; fill:none"/>
    <path d="M 185.526 167.35L 196.612 178.663L 203.714 178.663L 203.714 167.296L 185.526 167.35" style="stroke:none; fill-rule:evenodd; fill:#000000"/>
    <path d="M 185.526 167.35L 196.612 178.663L 203.714 178.663L 203.714 167.296L 185.526 167.35z" style="stroke:#000000; stroke-width:0.216; fill:none"/>
    <path d="M 219.214 166.003C 225.796 166.003 231.159 169.112 231.159 172.928C 231.159 176.741 225.796 179.85 219.214 179.85C 212.632 179.85 207.265 176.741 207.265 172.928C 207.265 169.112 212.632 166.003 219.214 166.003" style="stroke:none; fill-rule:evenodd; fill:#000000"/>
    <path d="M 219.214 166.003C 225.796 166.003 231.159 169.112 231.159 172.928C 231.159 176.741 225.796 179.85 219.214 179.85C 212.632 179.85 207.265 176.741 207.265 172.928C 207.265 169.112 212.632 166.003 219.214 166.003z" style="stroke:#000000; stroke-width:0.216; fill:none"/>
    <path d="M 210.647 156.831C 209.124 159.006 207.597 161.182 206.073 163.354C 200.604 158.784 196.218 152.585 192.581 145.264C 189.706 137.194 189.276 128.631 190.179 119.163C 192.706 107.467 196.421 99.1124 200.468 91.6864C 201.456 99.9364 203.054 107.842 208.929 113.327C 215.432 120.253 223.847 125.022 229.515 131.069C 234.753 139.065 234.335 147.272 231.343 155.569C 230.198 158.811 228.636 161.635 226.882 164.272C 224.784 162.932 222.686 161.6 220.593 160.264C 223.604 157.21 225.393 152.018 225.968 144.694C 227.085 138.585 223.878 134.163 218.878 130.495C 211.503 126.378 205.179 120.577 199.327 114.01C 196.948 122.784 195.948 131.803 198.753 141.487C 202.421 148.522 206.374 153.764 210.647 156.831" style="stroke:none; fill-rule:evenodd; fill:#000000"/>
    <path d="M 210.647 156.831C 209.124 159.006 207.597 161.182 206.073 163.354C 200.604 158.784 196.218 152.585 192.581 145.264C 189.706 137.194 189.276 128.631 190.179 119.163C 192.706 107.467 196.421 99.1124 200.468 91.6864C 201.456 99.9364 203.054 107.842 208.929 113.327C 215.432 120.253 223.847 125.022 229.515 131.069C 234.753 139.065 234.335 147.272 231.343 155.569C 230.198 158.811 228.636 161.635 226.882 164.272C 224.784 162.932 222.686 161.6 220.593 160.264C 223.604 157.21 225.393 152.018 225.968 144.694C 227.085 138.585 223.878 134.163 218.878 130.495C 211.503 126.378 205.179 120.577 199.327 114.01C 196.948 122.784 195.948 131.803 198.753 141.487C 202.421 148.522 206.374 153.764 210.647 156.831z" style="stroke:#000000; stroke-width:0.216; fill:none"/>
    <path d="M 29.6204 267.776L 2.62042 267.776" style="stroke:#000000; stroke-width:0.5; fill:none"/>
    <path d="M 38.6204 276.776L 38.6204 303.776" style="stroke:#000000; stroke-width:0.5; fill:none"/>
    <path d="M 29.6204 38.6204L 2.62042 38.6204" style="stroke:#000000; stroke-width:0.5; fill:none"/>
    <path d="M 38.6204 29.6204L 38.6204 2.62042" style="stroke:#000000; stroke-width:0.5; fill:none"/>
    <path d="M 276.776 38.6204L 303.776 38.6204" style="stroke:#000000; stroke-width:0.5; fill:none"/>
    <path d="M 267.776 29.6204L 267.776 2.62042" style="stroke:#000000; stroke-width:0.5; fill:none"/>
    <path d="M 276.776 267.776L 303.776 267.776" style="stroke:#000000; stroke-width:0.5; fill:none"/>
    <path d="M 267.776 276.776L 267.776 303.776" style="stroke:#000000; stroke-width:0.5; fill:none"/>
  </g>
</svg>

<svg viewBox="0 0 306.4 306.4"><g transform="matrix(1.35328 0 0 1.35328-53.21-52.19)"><path d="m151.63 42.3c60.64 0 110.1 49.46 110.1 110.11 0 60.64-49.46 110.1-110.1 110.1-60.65 0-110.11-49.46-110.11-110.1 0-60.65 49.46-110.11 110.11-110.11m57.19 180.81l-127.89-127.9c-12.691 15.648-20.316 35.558-20.316 57.2 0 50.12 40.887 91.01 91.02 91.01 21.637 0 41.547-7.625 57.19-20.313m-114.39-141.4l127.9 127.89c12.688-15.645 20.313-35.556 20.313-57.19 0-50.13-40.887-91.02-91.01-91.02-21.641 0-41.555 7.621-57.2 20.317" fill="#d90000" fill-rule="evenodd"/><path d="m151.63 42.3c60.64 0 110.1 49.46 110.1 110.11 0 60.64-49.46 110.1-110.1 110.1-60.65 0-110.11-49.46-110.11-110.1 0-60.65 49.46-110.11 110.11-110.11zm57.19 180.81l-127.89-127.9c-12.691 15.648-20.316 35.558-20.316 57.2 0 50.12 40.887 91.01 91.02 91.01 21.637 0 41.547-7.625 57.19-20.313zm-114.39-141.4l127.9 127.89c12.688-15.645 20.313-35.556 20.313-57.19 0-50.13-40.887-91.02-91.01-91.02-21.641 0-41.555 7.621-57.2 20.317z" fill="none" stroke="#f00" stroke-width=".216"/><path d="m148.11 167.54h-72.22v11.11h83.11l-10.887-11.11" fill-rule="evenodd"/><path d="m148.11 167.54h-72.22v11.11h83.11l-10.887-11.11z" fill="none" stroke="#000" stroke-width=".216"/><path d="m185.53 167.35l11.09 11.313h7.102v-11.367l-18.19.054" fill-rule="evenodd"/><path d="m185.53 167.35l11.09 11.313h7.102v-11.367l-18.19.054z" fill="none" stroke="#000" stroke-width=".216"/><path d="m219.21 166c6.582 0 11.945 3.109 11.945 6.925 0 3.813-5.363 6.922-11.945 6.922-6.582 0-11.949-3.109-11.949-6.922 0-3.816 5.367-6.925 11.949-6.925" fill-rule="evenodd"/><path d="m219.21 166c6.582 0 11.945 3.109 11.945 6.925 0 3.813-5.363 6.922-11.945 6.922-6.582 0-11.949-3.109-11.949-6.922 0-3.816 5.367-6.925 11.949-6.925z" fill="none" stroke="#000" stroke-width=".216"/><path d="m210.65 156.83c-1.523 2.175-3.05 4.351-4.574 6.523-5.469-4.57-9.855-10.769-13.492-18.09-2.875-8.07-3.305-16.633-2.402-26.1 2.527-11.696 6.242-20.05 10.289-27.477.988 8.25 2.586 16.16 8.461 21.641 6.503 6.926 14.918 11.695 20.586 17.742 5.238 7.996 4.82 16.203 1.828 24.5-1.145 3.242-2.707 6.07-4.461 8.703-2.098-1.34-4.196-2.672-6.289-4.01 3.01-3.054 4.8-8.246 5.375-15.57 1.117-6.109-2.09-10.531-7.09-14.199-7.375-4.117-13.699-9.918-19.551-16.485-2.379 8.774-3.379 17.793-.574 27.477 3.668 7.03 7.621 12.277 11.894 15.344" fill-rule="evenodd"/><path d="m210.65 156.83c-1.523 2.175-3.05 4.351-4.574 6.523-5.469-4.57-9.855-10.769-13.492-18.09-2.875-8.07-3.305-16.633-2.402-26.1 2.527-11.696 6.242-20.05 10.289-27.477.988 8.25 2.586 16.16 8.461 21.641 6.503 6.926 14.918 11.695 20.586 17.742 5.238 7.996 4.82 16.203 1.828 24.5-1.145 3.242-2.707 6.07-4.461 8.703-2.098-1.34-4.196-2.672-6.289-4.01 3.01-3.054 4.8-8.246 5.375-15.57 1.117-6.109-2.09-10.531-7.09-14.199-7.375-4.117-13.699-9.918-19.551-16.485-2.379 8.774-3.379 17.793-.574 27.477 3.668 7.03 7.621 12.277 11.894 15.344z" fill="none" stroke="#000" stroke-width=".216"/></g></svg>
